img/image1.svg

<svg width="322" height="233" viewBox="0 0 322 233" fill="none" xmlns="http://www.w3.org/2000/svg">
    <circle cx="162" cy="116.364" r="116.364" fill="#BFDBFE"/>
    <circle cx="39.8182" cy="29.0909" r="11.6364" fill="#DBEAFE"/>
    <circle cx="290" cy="183.273" r="8.72727" fill="#DBEAFE"/>
    <circle cx="38.3636" cy="200.727" r="14.5455" fill="#DBEAFE"/>
    <circle cx="307.455" cy="55.2727" r="14.5455" fill="#DBEAFE"/>
    <circle cx="279.818" cy="16" r="10.1818" fill="#DBEAFE"/>
    <g filter="url(#filter0_dd_23_2600)">
        <path d="M81.4008 181.685L162.028 144.088C164.662 142.86 165.801 139.73 164.573 137.096L118.507 38.3072L87.9974 27.2025L23.4087 57.3208C20.7752 58.5488 19.6359 61.6791 20.8639 64.3126L74.409 179.14C75.637 181.774 78.7673 182.913 81.4008 181.685Z" fill="url(#paint0_linear_23_2600)"/>
        <path d="M87.9971 27.2025L118.507 38.3071L97.6996 48.0096L87.9971 27.2025Z" fill="#93C5FD"/>
    </g>
    <g filter="url(#filter1_dd_23_2600)">
        <path d="M117.647 154.675H206.61C209.516 154.675 211.871 152.32 211.871 149.414V40.4126L188.913 17.4545H117.647C114.742 17.4545 112.386 19.81 112.386 22.7157V149.414C112.386 152.32 114.742 154.675 117.647 154.675Z" fill="url(#paint1_linear_23_2600)"/>
        <path d="M188.913 17.4544L211.871 40.4126H188.913V17.4544Z" fill="#93C5FD"/>
    </g>
    <g filter="url(#filter2_dd_23_2600)">
        <path d="M161.158 144.042L241.785 181.64C244.419 182.868 247.549 181.728 248.777 179.095L294.843 80.3059L283.738 49.7962L219.15 19.678C216.516 18.45 213.386 19.5893 212.158 22.2228L158.613 137.051C157.385 139.684 158.524 142.814 161.158 144.042Z" fill="url(#paint2_linear_23_2600)"/>
        <path d="M283.738 49.7962L294.843 80.3058L274.036 70.6033L283.738 49.7962Z" fill="#93C5FD"/>
    </g>
    <g filter="url(#filter3_b_23_2600)">
        <rect x="121.273" y="128" width="81.4545" height="81.4545" rx="36" fill="#2563EB" fill-opacity="0.49"/>
        <g clip-path="url(#clip0_23_2600)">
            <path d="M173.879 177.042C175.941 176.624 177.774 175.454 179.022 173.76C180.27 172.065 180.844 169.968 180.632 167.875C180.421 165.781 179.439 163.841 177.877 162.43C176.316 161.02 174.286 160.24 172.182 160.242H170.044C169.481 158.066 168.387 156.063 166.86 154.413C165.332 152.764 163.419 151.52 161.292 150.792C159.165 150.065 156.89 149.877 154.673 150.246C152.455 150.614 150.364 151.528 148.586 152.905C146.809 154.281 145.401 156.078 144.49 158.133C143.578 160.188 143.191 162.437 143.363 164.678C143.536 166.92 144.262 169.083 145.477 170.975C146.692 172.866 148.358 174.426 150.325 175.515M163.697 167.03L156.909 177.212H167.091L160.303 187.394" stroke="white" stroke-width="2.33333" stroke-linecap="round" stroke-linejoin="round"/>
        </g>
    </g>
    <defs>
        <filter id="filter0_dd_23_2600" x="-1.35962" y="17.5" width="188.156" height="206.409" filterUnits="userSpaceOnUse" color-interpolation-filters="sRGB">
            <feFlood flood-opacity="0" result="BackgroundImageFix"/>
            <feColorMatrix in="SourceAlpha" type="matrix" values="0 0 0 0 0 0 0 0 0 0 0 0 0 0 0 0 0 0 127 0" result="hardAlpha"/>
            <feMorphology radius="4" operator="erode" in="SourceAlpha" result="effect1_dropShadow_23_2600"/>
            <feOffset dy="8"/>
            <feGaussianBlur stdDeviation="4"/>
            <feColorMatrix type="matrix" values="0 0 0 0 0.0627451 0 0 0 0 0.0941176 0 0 0 0 0.156863 0 0 0 0.04 0"/>
            <feBlend mode="normal" in2="BackgroundImageFix" result="effect1_dropShadow_23_2600"/>
            <feColorMatrix in="SourceAlpha" type="matrix" values="0 0 0 0 0 0 0 0 0 0 0 0 0 0 0 0 0 0 127 0" result="hardAlpha"/>
            <feMorphology radius="4" operator="erode" in="SourceAlpha" result="effect2_dropShadow_23_2600"/>
            <feOffset dy="20"/>
            <feGaussianBlur stdDeviation="12"/>
            <feColorMatrix type="matrix" values="0 0 0 0 0.0627451 0 0 0 0 0.0941176 0 0 0 0 0.156863 0 0 0 0.1 0"/>
            <feBlend mode="normal" in2="effect1_dropShadow_23_2600" result="effect2_dropShadow_23_2600"/>
            <feBlend mode="normal" in="SourceGraphic" in2="effect2_dropShadow_23_2600" result="shape"/>
        </filter>
        <filter id="filter1_dd_23_2600" x="92.386" y="17.4544" width="139.485" height="177.221" filterUnits="userSpaceOnUse" color-interpolation-filters="sRGB">
            <feFlood flood-opacity="0" result="BackgroundImageFix"/>
            <feColorMatrix in="SourceAlpha" type="matrix" values="0 0 0 0 0 0 0 0 0 0 0 0 0 0 0 0 0 0 127 0" result="hardAlpha"/>
            <feMorphology radius="4" operator="erode" in="SourceAlpha" result="effect1_dropShadow_23_2600"/>
            <feOffset dy="8"/>
            <feGaussianBlur stdDeviation="4"/>
            <feColorMatrix type="matrix" values="0 0 0 0 0.0627451 0 0 0 0 0.0941176 0 0 0 0 0.156863 0 0 0 0.04 0"/>
            <feBlend mode="normal" in2="BackgroundImageFix" result="effect1_dropShadow_23_2600"/>
            <feColorMatrix in="SourceAlpha" type="matrix" values="0 0 0 0 0 0 0 0 0 0 0 0 0 0 0 0 0 0 127 0" result="hardAlpha"/>
            <feMorphology radius="4" operator="erode" in="SourceAlpha" result="effect2_dropShadow_23_2600"/>
            <feOffset dy="20"/>
            <feGaussianBlur stdDeviation="12"/>
            <feColorMatrix type="matrix" values="0 0 0 0 0.0627451 0 0 0 0 0.0941176 0 0 0 0 0.156863 0 0 0 0.1 0"/>
            <feBlend mode="normal" in2="effect1_dropShadow_23_2600" result="effect2_dropShadow_23_2600"/>
            <feBlend mode="normal" in="SourceGraphic" in2="effect2_dropShadow_23_2600" result="shape"/>
        </filter>
        <filter id="filter2_dd_23_2600" x="136.389" y="17.4545" width="188.156" height="206.409" filterUnits="userSpaceOnUse" color-interpolation-filters="sRGB">
            <feFlood flood-opacity="0" result="BackgroundImageFix"/>
            <feColorMatrix in="SourceAlpha" type="matrix" values="0 0 0 0 0 0 0 0 0 0 0 0 0 0 0 0 0 0 127 0" result="hardAlpha"/>
            <feMorphology radius="4" operator="erode" in="SourceAlpha" result="effect1_dropShadow_23_2600"/>
            <feOffset dy="8"/>
            <feGaussianBlur stdDeviation="4"/>
            <feColorMatrix type="matrix" values="0 0 0 0 0.0627451 0 0 0 0 0.0941176 0 0 0 0 0.156863 0 0 0 0.04 0"/>
            <feBlend mode="normal" in2="BackgroundImageFix" result="effect1_dropShadow_23_2600"/>
            <feColorMatrix in="SourceAlpha" type="matrix" values="0 0 0 0 0 0 0 0 0 0 0 0 0 0 0 0 0 0 127 0" result="hardAlpha"/>
            <feMorphology radius="4" operator="erode" in="SourceAlpha" result="effect2_dropShadow_23_2600"/>
            <feOffset dy="20"/>
            <feGaussianBlur stdDeviation="12"/>
            <feColorMatrix type="matrix" values="0 0 0 0 0.0627451 0 0 0 0 0.0941176 0 0 0 0 0.156863 0 0 0 0.1 0"/>
            <feBlend mode="normal" in2="effect1_dropShadow_23_2600" result="effect2_dropShadow_23_2600"/>
            <feBlend mode="normal" in="SourceGraphic" in2="effect2_dropShadow_23_2600" result="shape"/>
        </filter>
        <filter id="filter3_b_23_2600" x="113.273" y="120" width="97.4546" height="97.4545" filterUnits="userSpaceOnUse" color-interpolation-filters="sRGB">
            <feFlood flood-opacity="0" result="BackgroundImageFix"/>
            <feGaussianBlur in="BackgroundImageFix" stdDeviation="4"/>
            <feComposite in2="SourceAlpha" operator="in" result="effect1_backgroundBlur_23_2600"/>
            <feBlend mode="normal" in="SourceGraphic" in2="effect1_backgroundBlur_23_2600" result="shape"/>
        </filter>
        <linearGradient id="paint0_linear_23_2600" x1="79.086" y1="180.972" x2="18.2866" y2="71.2857" gradientUnits="userSpaceOnUse">
            <stop stop-color="#E2ECFF"/>
            <stop offset="1" stop-color="#EDF5FF"/>
        </linearGradient>
        <linearGradient id="paint1_linear_23_2600" x1="115.851" y1="153.051" x2="107.103" y2="27.9463" gradientUnits="userSpaceOnUse">
            <stop stop-color="#E2ECFF"/>
            <stop offset="1" stop-color="#EDF5FF"/>
        </linearGradient>
        <linearGradient id="paint2_linear_23_2600" x1="160.216" y1="141.811" x2="205.16" y2="24.7307" gradientUnits="userSpaceOnUse">
            <stop stop-color="#E2ECFF"/>
            <stop offset="1" stop-color="#EDF5FF"/>
        </linearGradient>
        <clipPath id="clip0_23_2600">
            <rect width="40.7273" height="40.7273" fill="white" transform="translate(141.636 148.364)"/>
        </clipPath>
    </defs>
</svg>

<svg width="322" height="233" fill="none" xmlns="http://www.w3.org/2000/svg"><circle cx="162" cy="116.364" r="116.364" fill="#BFDBFE"/><circle cx="39.818" cy="29.091" r="11.636" fill="#DBEAFE"/><circle cx="290" cy="183.273" r="8.727" fill="#DBEAFE"/><circle cx="38.364" cy="200.727" r="14.546" fill="#DBEAFE"/><circle cx="307.455" cy="55.273" r="14.546" fill="#DBEAFE"/><circle cx="279.818" cy="16" r="10.182" fill="#DBEAFE"/><g filter="url(#filter0_dd_23_2600)"><path d="M81.4 181.685l80.628-37.597a5.26 5.26 0 002.545-6.992l-46.066-98.789-30.51-11.105-64.587 30.12a5.261 5.261 0 00-2.545 6.992L74.409 179.14a5.26 5.26 0 006.992 2.545z" fill="url(#paint0_linear_23_2600)"/><path d="M87.997 27.203l30.51 11.104L97.7 48.01l-9.703-20.807z" fill="#93C5FD"/></g><g filter="url(#filter1_dd_23_2600)"><path d="M117.647 154.675h88.963a5.26 5.26 0 005.261-5.261V40.413l-22.958-22.958h-71.266a5.261 5.261 0 00-5.261 5.26v126.699a5.261 5.261 0 005.261 5.261z" fill="url(#paint1_linear_23_2600)"/><path d="M188.913 17.454l22.958 22.959h-22.958V17.454z" fill="#93C5FD"/></g><g filter="url(#filter2_dd_23_2600)"><path d="M161.158 144.042l80.627 37.598a5.262 5.262 0 006.992-2.545l46.066-98.79-11.105-30.509-64.588-30.118a5.261 5.261 0 00-6.992 2.545L158.613 137.05a5.26 5.26 0 002.545 6.991z" fill="url(#paint2_linear_23_2600)"/><path d="M283.738 49.796l11.105 30.51-20.807-9.703 9.702-20.807z" fill="#93C5FD"/></g><g filter="url(#filter3_b_23_2600)"><rect x="121.273" y="128" width="81.454" height="81.454" rx="36" fill="#2563EB" fill-opacity=".49"/><g clip-path="url(#clip0_23_2600)"><path d="M173.879 177.042a8.481 8.481 0 006.753-9.167 8.483 8.483 0 00-8.45-7.633h-2.138a13.596 13.596 0 00-3.184-5.829 13.576 13.576 0 10-16.535 21.102m13.372-8.485l-6.788 10.182h10.182l-6.788 10.182" stroke="#fff" stroke-width="2.333" stroke-linecap="round" stroke-linejoin="round"/></g></g><defs><filter id="filter0_dd_23_2600" x="-1.36" y="17.5" width="188.156" height="206.409" filterUnits="userSpaceOnUse" color-interpolation-filters="sRGB"><feFlood flood-opacity="0" result="BackgroundImageFix"/><feColorMatrix in="SourceAlpha" values="0 0 0 0 0 0 0 0 0 0 0 0 0 0 0 0 0 0 127 0" result="hardAlpha"/><feMorphology radius="4" in="SourceAlpha" result="effect1_dropShadow_23_2600"/><feOffset dy="8"/><feGaussianBlur stdDeviation="4"/><feColorMatrix values="0 0 0 0 0.0627451 0 0 0 0 0.0941176 0 0 0 0 0.156863 0 0 0 0.04 0"/><feBlend in2="BackgroundImageFix" result="effect1_dropShadow_23_2600"/><feColorMatrix in="SourceAlpha" values="0 0 0 0 0 0 0 0 0 0 0 0 0 0 0 0 0 0 127 0" result="hardAlpha"/><feMorphology radius="4" in="SourceAlpha" result="effect2_dropShadow_23_2600"/><feOffset dy="20"/><feGaussianBlur stdDeviation="12"/><feColorMatrix values="0 0 0 0 0.0627451 0 0 0 0 0.0941176 0 0 0 0 0.156863 0 0 0 0.1 0"/><feBlend in2="effect1_dropShadow_23_2600" result="effect2_dropShadow_23_2600"/><feBlend in="SourceGraphic" in2="effect2_dropShadow_23_2600" result="shape"/></filter><filter id="filter1_dd_23_2600" x="92.386" y="17.454" width="139.485" height="177.221" filterUnits="userSpaceOnUse" color-interpolation-filters="sRGB"><feFlood flood-opacity="0" result="BackgroundImageFix"/><feColorMatrix in="SourceAlpha" values="0 0 0 0 0 0 0 0 0 0 0 0 0 0 0 0 0 0 127 0" result="hardAlpha"/><feMorphology radius="4" in="SourceAlpha" result="effect1_dropShadow_23_2600"/><feOffset dy="8"/><feGaussianBlur stdDeviation="4"/><feColorMatrix values="0 0 0 0 0.0627451 0 0 0 0 0.0941176 0 0 0 0 0.156863 0 0 0 0.04 0"/><feBlend in2="BackgroundImageFix" result="effect1_dropShadow_23_2600"/><feColorMatrix in="SourceAlpha" values="0 0 0 0 0 0 0 0 0 0 0 0 0 0 0 0 0 0 127 0" result="hardAlpha"/><feMorphology radius="4" in="SourceAlpha" result="effect2_dropShadow_23_2600"/><feOffset dy="20"/><feGaussianBlur stdDeviation="12"/><feColorMatrix values="0 0 0 0 0.0627451 0 0 0 0 0.0941176 0 0 0 0 0.156863 0 0 0 0.1 0"/><feBlend in2="effect1_dropShadow_23_2600" result="effect2_dropShadow_23_2600"/><feBlend in="SourceGraphic" in2="effect2_dropShadow_23_2600" result="shape"/></filter><filter id="filter2_dd_23_2600" x="136.389" y="17.454" width="188.156" height="206.409" filterUnits="userSpaceOnUse" color-interpolation-filters="sRGB"><feFlood flood-opacity="0" result="BackgroundImageFix"/><feColorMatrix in="SourceAlpha" values="0 0 0 0 0 0 0 0 0 0 0 0 0 0 0 0 0 0 127 0" result="hardAlpha"/><feMorphology radius="4" in="SourceAlpha" result="effect1_dropShadow_23_2600"/><feOffset dy="8"/><feGaussianBlur stdDeviation="4"/><feColorMatrix values="0 0 0 0 0.0627451 0 0 0 0 0.0941176 0 0 0 0 0.156863 0 0 0 0.04 0"/><feBlend in2="BackgroundImageFix" result="effect1_dropShadow_23_2600"/><feColorMatrix in="SourceAlpha" values="0 0 0 0 0 0 0 0 0 0 0 0 0 0 0 0 0 0 127 0" result="hardAlpha"/><feMorphology radius="4" in="SourceAlpha" result="effect2_dropShadow_23_2600"/><feOffset dy="20"/><feGaussianBlur stdDeviation="12"/><feColorMatrix values="0 0 0 0 0.0627451 0 0 0 0 0.0941176 0 0 0 0 0.156863 0 0 0 0.1 0"/><feBlend in2="effect1_dropShadow_23_2600" result="effect2_dropShadow_23_2600"/><feBlend in="SourceGraphic" in2="effect2_dropShadow_23_2600" result="shape"/></filter><filter id="filter3_b_23_2600" x="113.273" y="120" width="97.455" height="97.454" filterUnits="userSpaceOnUse" color-interpolation-filters="sRGB"><feFlood flood-opacity="0" result="BackgroundImageFix"/><feGaussianBlur in="BackgroundImageFix" stdDeviation="4"/><feComposite in2="SourceAlpha" operator="in" result="effect1_backgroundBlur_23_2600"/><feBlend in="SourceGraphic" in2="effect1_backgroundBlur_23_2600" result="shape"/></filter><linearGradient id="paint0_linear_23_2600" x1="79.086" y1="180.972" x2="18.287" y2="71.286" gradientUnits="userSpaceOnUse"><stop stop-color="#E2ECFF"/><stop offset="1" stop-color="#EDF5FF"/></linearGradient><linearGradient id="paint1_linear_23_2600" x1="115.851" y1="153.051" x2="107.103" y2="27.946" gradientUnits="userSpaceOnUse"><stop stop-color="#E2ECFF"/><stop offset="1" stop-color="#EDF5FF"/></linearGradient><linearGradient id="paint2_linear_23_2600" x1="160.216" y1="141.811" x2="205.16" y2="24.731" gradientUnits="userSpaceOnUse"><stop stop-color="#E2ECFF"/><stop offset="1" stop-color="#EDF5FF"/></linearGradient><clipPath id="clip0_23_2600"><path fill="#fff" transform="translate(141.636 148.364)" d="M0 0h40.727v40.727H0z"/></clipPath></defs></svg>
